X:21
T:Cassidys of Teelin* (h)
B:NFID.109a ("untitled highland")
021cass_t
S:SD
L:1/8
M:C
R:hornpipe
Q:300
K:D=C
A2AG ABcA|G2EC GCEG|A2AG ABcA|BGAG FDD2:|
defd cAAc|BGBd cAA2|1 defd cAAc|BGAG FDD2:|
[2 defd cAAA|(3Bcd AG FD (3EFG||


%%%

